src/assets/icons/gitbook.svg

<svg width="14" height="15" viewBox="0 0 14 15" fill="none" xmlns="http://www.w3.org/2000/svg">
<g clip-path="url(#clip0)">
<path d="M6.29897 10.8687C6.51772 10.8687 6.7146 11.0437 6.7146 11.2843C6.7146 11.5031 6.5396 11.6999 6.29897 11.6999C6.08022 11.6999 5.88335 11.5249 5.88335 11.2843C5.88335 11.0437 6.08022 10.8687 6.29897 10.8687ZM12.7302 8.33119C12.5115 8.33119 12.3146 8.15619 12.3146 7.91556C12.3146 7.69681 12.4896 7.49994 12.7302 7.49994C12.949 7.49994 13.1458 7.67494 13.1458 7.91556C13.1458 8.13431 12.949 8.33119 12.7302 8.33119ZM12.7302 6.64681C12.0302 6.64681 11.4615 7.21556 11.4615 7.91556C11.4615 8.04681 11.4833 8.17806 11.5271 8.30931L7.34897 10.5406C7.10835 10.1906 6.7146 9.99369 6.29897 9.99369C5.81772 9.99369 5.38022 10.2781 5.16147 10.6937L1.39897 8.72494C1.00522 8.50619 0.698973 7.87181 0.742723 7.25931C0.764598 6.95306 0.873972 6.71244 1.0271 6.62494C1.13647 6.55931 1.24585 6.58119 1.39897 6.64681L1.42085 6.66869C2.4271 7.19369 5.68647 8.89994 5.81772 8.96556C6.03647 9.05306 6.14585 9.09681 6.51772 8.92181L13.2552 5.42181C13.3646 5.37806 13.474 5.29056 13.474 5.13744C13.474 4.94056 13.2771 4.85306 13.2771 4.85306C12.8833 4.67806 12.2927 4.39369 11.724 4.13119C10.499 3.56244 9.09897 2.90619 8.48647 2.57806C7.96147 2.29369 7.52397 2.53431 7.45835 2.57806L7.30522 2.64369C4.5271 4.04369 0.852098 5.85931 0.633348 5.99056C0.261473 6.20931 0.0208477 6.66869 -0.00102731 7.23744C-0.0447773 8.13431 0.414598 9.07494 1.07085 9.40306L5.0521 11.4593C5.1396 12.0718 5.68647 12.5531 6.29897 12.5531C6.99897 12.5531 7.54585 12.0062 7.56772 11.3062L11.9427 8.94369C12.1615 9.11869 12.4458 9.20619 12.7302 9.20619C13.4302 9.20619 13.999 8.63744 13.999 7.93744C13.999 7.21556 13.4302 6.64681 12.7302 6.64681Z" fill="#39D0D8"/>
</g>
<defs>
<clipPath id="clip0">
<rect width="14" height="14" fill="white" transform="translate(0 0.5)"/>
</clipPath>
</defs>
</svg>

<?xml version="1.0" encoding="utf-8"?>
<!-- Generator: Adobe Illustrator 26.0.3, SVG Export Plug-In . SVG Version: 6.00 Build 0)  -->
<svg version="1.1" id="Layer_1" xmlns="http://www.w3.org/2000/svg" xmlns:xlink="http://www.w3.org/1999/xlink" x="0px" y="0px"
	 viewBox="0 0 14 15" style="enable-background:new 0 0 14 15;" xml:space="preserve">
<style type="text/css">
	.st0{clip-path:url(#SVGID_00000159437401877337531750000005915951564572674725_);}
	.st1{fill:#004BAF;}
</style>
<g>
	<defs>
		<rect id="SVGID_1_" y="0.5" width="14" height="14"/>
	</defs>
	<clipPath id="SVGID_00000156576795778651056590000003105188983835329169_">
		<use xlink:href="#SVGID_1_"  style="overflow:visible;"/>
	</clipPath>
	<g style="clip-path:url(#SVGID_00000156576795778651056590000003105188983835329169_);">
		<path class="st1" d="M6.3,10.9c0.2,0,0.4,0.2,0.4,0.4c0,0.2-0.2,0.4-0.4,0.4c-0.2,0-0.4-0.2-0.4-0.4C5.9,11,6.1,10.9,6.3,10.9z
			 M12.7,8.3c-0.2,0-0.4-0.2-0.4-0.4c0-0.2,0.2-0.4,0.4-0.4c0.2,0,0.4,0.2,0.4,0.4C13.1,8.1,12.9,8.3,12.7,8.3z M12.7,6.6
			c-0.7,0-1.3,0.6-1.3,1.3c0,0.1,0,0.3,0.1,0.4l-4.2,2.2c-0.2-0.3-0.6-0.5-1-0.5c-0.5,0-0.9,0.3-1.1,0.7l-3.8-2
			C1,8.5,0.7,7.9,0.7,7.3C0.8,7,0.9,6.7,1,6.6c0.1-0.1,0.2,0,0.4,0l0,0c1,0.5,4.3,2.2,4.4,2.3c0.2,0.1,0.3,0.1,0.7,0l6.7-3.5
			c0.1,0,0.2-0.1,0.2-0.3c0-0.2-0.2-0.3-0.2-0.3c-0.4-0.2-1-0.5-1.6-0.7c-1.2-0.6-2.6-1.2-3.2-1.6c-0.5-0.3-1,0-1,0L7.3,2.6
			C4.5,4,0.9,5.9,0.6,6C0.3,6.2,0,6.7,0,7.2c0,0.9,0.4,1.8,1.1,2.2l4,2.1c0.1,0.6,0.6,1.1,1.2,1.1c0.7,0,1.2-0.5,1.3-1.2l4.4-2.4
			c0.2,0.2,0.5,0.3,0.8,0.3c0.7,0,1.3-0.6,1.3-1.3C14,7.2,13.4,6.6,12.7,6.6z"/>
	</g>
</g>
</svg>
